X: 40383
T: Tom Hackett's Dream
R: jig
M: 6/8
K: Gmajor
|:A|BGG Bcd|ecc efg|dcB gdB|~A3 ABc|
BGG Bcd|ecc efg|dcB gdB|AGF G2:|
f|~g3 bag|fed ^cde|dcB gdB|~A3 AB/c/d|
~g3 bag|fed ^cde|dcB gdB|AGF G2 f|
~g3 bag|fed ^cde|dcB gdB|~A3 ABc|
BGG Bcd|ecc efg|dcB gdB|AGF G2||

